X: 8033
T: Connie Flemming's
R: polka
M: 2/4
K: Gmajor
|:ga ag/a/|gf ed|B2 B/c/B/A/|BE ED|
G>F GA|B/c/d ed|e/f/g af|g2 g2:|
|:G2 G2|Bd eg|B2 BA|GE ED|
G2 GA|Bd ed|eg af|g2 g2:|
|:g2 ga|gf ed|B2 BA|GE ED|
G2 GA|Bd ed|eg af|g2 g2:|

